!!!COM: Lasso
!!!OTL: Justus cor suum tradet
!!!OMV: Partie 1
**kern	**text	**kern	**text
*part2	*part2	*part1	*part1
*staff2	*staff2	*staff1	*staff1
*I"Altus	*	*I"Cantus	*
*clefC2	*	*clefG2	*
*k[]	*	*k[]	*
*C:	*	*C:	*
*M4/2	*	*M4/2	*
=1	=1	=1	=1
0r	.	0dd	Ju-
=2	=2	=2	=2
0d	Ju-	1.ff	-stus
.	.	4ee	.
.	.	4dd	.
=3	=3	=3	=3
1.f	-stus	2cc	.
.	.	2a	cor
.	.	2.cc	su-
4e	.	.	.
4d	.	4dd	.
=4	=4	=4	=4
2c	.	2ee	.
2d	cor	2a	-um
2.f	su-	2r	.
.	.	4a	tra-
4g	.	4b	.
=5	=5	=5	=5
2a	.	4cc	.
.	.	4f	.
2d	-um	2ff	.
2r	.	1ee	-det
4a	tra-	.	.
4b	.	.	.
=6	=6	=6	=6
4cc	.	2r	.
4f	.	.	.
2b	.	2dd	ad
1a	-det	2cc	vi-
.	.	2ee	-gi-
=7	=7	=7	=7
2r	.	1ff	-lan-
2d	ad	.	.
2c	vi-	2ee	-dum
2e	-gi-	1cc	di-
=8	=8	=8	=8
1f	-lan-	.	.
.	.	4b	.
.	.	4a	.
2e	-dum	4cc	.
.	.	4b	.
1cc	di-	2ee	.
=9	=9	=9	=9
.	.	2.gg	-lu-
4b	.	.	.
4a	.	4ff	.
4cc	.	4ee	.
4b	.	4dd	.
2cc	.	2ee.	.
=10	=10	=10	=10
2.a	-lu-	.	.
.	.	4dd	.
.	.	4cc	.
4g	.	4b	.
2f	.	4cc	.
.	.	4a	.
4e	.	1dd	.
4d	.	.	.
=11	=11	=11	=11
2.e	.	.	.
.	.	2cc#X	-cu-
4e	-cu-	.	.
0d	-lo	1dd	-lo
=12	=12	=12	=12
.	.	2r	.
.	.	2ff	ad
2r	.	2.ee	Do-
2a	ad	.	.
.	.	8ddL	.
.	.	8ccniJ	.
=13	=13	=13	=13
2.g	Do-	4b	.
.	.	4cc	.
.	.	4dd	.
8fL	.	4ee	.
8eJ	.	.	.
4d	.	2ff	.
4e	.	.	.
4f	.	2dd	-mi-
4g	.	.	.
=14	=14	=14	=14
2a	.	1cc	-num,
2f	-mi-	.	.
1e	-num,	2r	.
.	.	2ee	ad
=15	=15	=15	=15
2r	.	2.dd	Do-
2g	ad	.	.
.	.	8ccL	.
.	.	8bJ	.
2.f	Do-	4a	.
.	.	4b	.
.	.	4cc	.
8eL	.	4dd	.
8dJ	.	.	.
=16	=16	=16	=16
4c	.	2ee	.
4d	.	.	.
4e	.	2cc	-mi-
4f	.	.	.
2g	.	2b	-num,
2e	-mi-	2g	qui
=17	=17	=17	=17
2d	-num,	2a	fe-
2B	qui	2dd	-cit
2c	fe-	2ee	il-
2f	-cit	2a	-lum,
=18	=18	=18	=18
2g	il-	2r	.
2c	-lum,	2ee	et
2r	.	2dd	in
2e	et	2cc	con-
=19	=19	=19	=19
2d	in	2ff	-spe-
2c	con-	4ee	.
.	.	4dd	.
2f	-spe-	2.cc	.
4e	.	.	.
4d	.	4dd	.
=20	=20	=20	=20
2.c	.	2ee	.
.	.	2cc	-ctu
4d	.	.	.
2e	.	2.g	Al-
2c	-ctu	.	.
.	.	4a	.
=21	=21	=21	=21
2.g	Al-	4b	.
.	.	4cc	.
.	.	2dd.	.
4a	.	.	.
4b	.	.	.
4cc	.	4ee	.
2dd	.	4ff	.
.	.	4dd	.
=22	=22	=22	=22
2.cc	-tis-	2ee	.
.	.	2gg.	-tis-
4b	.	.	.
2a	.	.	.
.	.	4ff	.
2b-X	-si-	1ff	.
=23	=23	=23	=23
1g	-mi	.	.
.	.	2ee	-si-
2r	.	1ff	-mi
2d.	de-	.	.
=24	=24	=24	=24
.	.	0dd	de-
4e	.	.	.
4f	.	.	.
4d	.	.	.
4g	.	.	.
4f	.	.	.
2b	.	.	.
=25	=25	=25	=25
2g	-pre-	1dd	-pre-
2f.	-ca-	.	.
.	.	2.cc	-ca-
4e	.	.	.
1a	.	.	.
.	.	8bL	.
.	.	8aJ	.
=26	=26	=26	=26
.	.	2b	.
2g	-bi-	2b	-bi-
1a	tur,	2a	-tur,
.	.	1cc	de-
=27	=27	=27	=27
0f	de-	.	.
.	.	2cc	-pre-
.	.	4a	-ca-
.	.	4b	.
.	.	4cc	.
.	.	4a	.
=28	=28	=28	=28
1f	-pre-	4dd	.
.	.	4cc	.
.	.	4cc	.
.	.	8bL	.
.	.	8aJ	.
2.e	-ca-	4g	.
.	.	4c	.
.	.	1cc	.
8dL	.	.	.
8cJ	.	.	.
=29	=29	=29	=29
2d	.	.	.
2d	-bi-	2b	-bi-
0c	-tur,	1cc	-tur,
=30	=30	=30	=30
.	.	2r	.
.	.	1ee	de-
0g	de-	.	.
.	.	2dd	-pre-
=31	=31	=31	=31
.	.	4b	-ca-
.	.	4cc	.
.	.	4dd	.
.	.	4b	.
1g	-pre-	4ee	.
.	.	4dd	.
.	.	4dd	.
.	.	8ccL	.
.	.	8bJ	.
=32	=32	=32	=32
2.f	-ca-	4a	.
.	.	4d	.
.	.	1dd	.
8eL	.	.	.
8dJ	.	.	.
2e	.	.	.
2e	-bi-	2cc#X	-bi-
=33	=33	=33	=33
0d	-tur.	0dd	-tur.
==	==	==	==
*-	*-	*-	*-
!!!system-decoration: s1,s2
!!!RDF**kern: i = editorial accidental